X:143
M:3/4
L:1/8
Q:1/4=120
K:F
[A4c4] e/d/c/B/|c2 Fz a>g|f2 A<f c>B|(A2 D)z:|
f>g|a4 b/a/g/f/|g2f2c2|d3f dc|[A6c6]|c2d2f2|
g4 f>g|a3g f>c|d4 f>g|a2 bagf|g2 agfe|
f2 dfe>c|A4 f>e|d4 c>B|A4 GF|F2a2g2|(g2f2)||

